X:1
T:Title
%%score { ( 1 4 ) | ( 2 3 ) }
L:1/8
M:4/4
K:D
V:1 treble nm="Grand Piano"
V:4 treble 
V:2 bass 
V:3 bass 
V:1
 z4 z2[Q:1/4=100] [DF]>[EG] | [FA]2 [FA]2 [DF][EG][FA]B | [DFA]6 [A,FA]>[A,FA] | %3
 [EG]2 [DF]2 [CE][GB][FA]G |[M:3/4] F6 |[M:1/4] F>[EG] |[M:4/4] [FA]2 [FA]2 [DF][EG][FA][GB] | %7
 [FA]6 [Fd]>[Fd] | c2 A2 ^G2 B2 |[M:3/4] [CA]6 |[M:1/4] B>A |[M:4/4] d6 z2 | c6 z2 | %13
 [Gc]2 [GB]2 [FA]2 [EG]2 |[M:3/4] F2 A2 z2 |[M:1/4] B>A |[M:4/4] f6 z2 | e6 z2 | %18
 B2 A2 [GB]2 [Gc]2 |[M:3/4] [Fd]6 |] %20
V:2
 z4 z2 [D,A,]>[D,A,] | z4 z2 [D,D]2 | D,6 D,>D, | A,2 A,2 [A,,A,]2 z E |[M:3/4] [D,A,D]6 | %5
[M:1/4] [D,A,D]>[D,A,] |[M:4/4] [D,A,]2 [D,A,]2 [D,A,]2 [D,D]2 | [D,D]6 [D,A,]>[D,A,] | %8
 [E,A,E]2 [E,CE]2 [E,B,D]2 [E,^G,D]2 |[M:3/4] [A,,A,]6 |[M:1/4] z2 | %11
[M:4/4] z2 [D,A,]>[D,A,] [D,A,]2 z2 | z2 [A,,A,]>[A,,A,] [A,,A,]2 [A,,A,]>[A,,A,] | %13
 [A,,A,]2 [A,,A,]2 [B,,A,]2 [C,A,]2 |[M:3/4] D2[K:treble] F2 z2 |[M:1/4] z2 | %16
[M:4/4] z2[K:bass] [D,A,]>[D,A,] [D,A,]2 z2 | z2 [G,B,]>[G,B,] [G,B,]2[K:treble] [G,B,G]>[G,DG] | %18
 [A,DF]2 [A,DF]2[K:bass] [A,,A,]2 [A,,A,]2 |[M:3/4] [D,A,]6 |] %20
V:3
 x8 | [D,A,]2 [D,A,]2 [D,A,]2 z G | x8 | z4 z2 [A,,A,]2 |[M:3/4] x6 |[M:1/4] x2 |[M:4/4] x8 | x8 | %8
 x8 |[M:3/4] x6 |[M:1/4] x2 |[M:4/4] x8 | x8 | x8 |[M:3/4] [D,A,]4[K:treble] z2 |[M:1/4] x2 | %16
[M:4/4] x2[K:bass] x6 | x6[K:treble] x2 | x4[K:bass] x4 |[M:3/4] x6 |] %20
V:4
 x8 | x8 | x8 | x8 |[M:3/4] x6 |[M:1/4] x2 |[M:4/4] x8 | x8 | x8 |[M:3/4] x6 |[M:1/4] x2 | %11
[M:4/4] z2 F>F F2 B>A | z2 [EG]>[EG] [EG]2 [EG]>[EG] | x8 |[M:3/4] x6 |[M:1/4] x2 | %16
[M:4/4] z2 F>F F2 e>d | z2 G>G G2 d>B | x8 |[M:3/4] x6 |] %20

